<?xml version="1.0" encoding="UTF-8"?>
<map version="1.10" tiledversion="1.12.2" orientation="orthogonal" renderorder="right-down" width="40" height="20" tilewidth="32" tileheight="32" infinite="0" nextlayerid="5" nextobjectid="31">
 <tileset firstgid="1" source="../tilesets/0.tsx"/>
 <layer id="3" name="ground" width="40" height="20">
  <data encoding="csv">
0,0,0,0,0,0,0,0,0,0,0,0,0,0,0,0,0,0,0,0,0,0,0,0,0,0,0,0,0,0,0,0,0,0,0,0,0,0,0,0,
0,0,0,0,0,0,0,0,0,0,0,0,0,0,0,0,0,0,0,0,0,0,0,0,0,0,0,0,0,0,0,0,0,0,0,0,0,0,0,0,
0,0,0,0,0,0,0,0,0,0,0,0,0,0,0,0,0,0,0,0,0,0,0,0,0,0,0,0,0,0,0,0,0,0,0,0,0,0,0,0,
0,0,0,0,0,0,0,0,0,0,0,0,0,0,0,0,0,0,0,0,0,0,0,0,0,0,0,0,0,0,0,0,0,0,0,0,0,0,0,0,
0,0,0,0,0,0,0,0,0,0,0,0,0,0,0,0,0,0,0,0,0,0,0,0,0,0,0,0,0,0,0,0,0,0,0,0,0,0,0,0,
0,0,0,0,0,0,0,0,0,0,0,0,0,0,0,0,0,0,0,0,0,0,0,0,0,0,0,0,0,0,0,0,0,0,0,0,0,0,0,0,
0,0,0,0,0,0,0,0,0,0,0,0,0,0,0,0,2,2,2,0,0,2,2,2,0,0,0,0,0,0,0,0,0,0,0,0,0,0,0,0,
0,0,0,0,0,0,0,0,0,0,0,0,0,0,0,0,18,18,18,0,0,18,18,18,0,0,0,0,0,0,0,0,0,0,0,0,0,0,0,0,
0,0,0,0,0,0,0,0,0,0,0,0,0,0,0,0,0,0,0,0,0,0,0,0,0,0,0,0,0,0,0,0,0,0,0,0,0,0,0,0,
0,0,0,0,0,0,0,0,0,0,0,0,0,0,0,0,0,0,0,0,0,0,0,0,0,0,0,0,0,0,0,0,0,0,0,0,0,0,0,0,
0,0,0,0,0,0,0,0,0,0,2,2,2,0,0,0,0,0,0,0,0,0,0,0,0,0,0,2,2,2,0,0,0,0,0,0,0,0,0,0,
0,0,0,0,0,0,0,0,0,0,18,18,18,0,0,0,0,0,0,0,0,0,0,0,0,0,0,18,18,18,0,0,0,0,0,0,0,0,0,0,
0,0,0,0,0,0,0,0,0,0,0,0,0,0,0,0,2,2,2,0,0,2,2,2,0,0,0,0,0,0,0,0,0,0,0,0,0,0,0,0,
0,0,0,0,0,0,0,0,0,0,0,0,0,0,0,0,18,18,18,0,0,18,18,18,0,0,0,0,0,0,0,0,0,0,0,0,0,0,0,0,
0,0,0,0,0,0,0,0,0,0,0,0,0,0,0,0,0,0,0,0,0,0,0,0,0,0,0,0,0,0,0,0,0,0,0,0,0,0,0,0,
0,0,0,0,0,0,0,0,0,0,2,2,2,0,0,0,0,0,0,0,0,0,0,0,0,0,0,2,2,2,0,0,0,0,0,0,0,0,0,0,
0,0,0,0,0,0,0,0,0,0,18,18,18,0,0,0,0,0,0,0,0,0,0,0,0,0,0,18,18,18,0,0,0,0,0,0,0,0,0,0,
0,0,0,0,2,2,2,0,0,0,0,0,0,0,0,0,0,0,0,0,0,0,0,0,0,0,0,0,0,0,0,0,0,2,2,2,0,0,0,0,
2,2,2,0,18,18,18,0,0,0,0,0,0,0,0,0,0,0,0,0,0,0,0,0,0,0,0,0,0,0,0,0,0,18,18,18,0,2,2,2,
18,18,18,0,0,0,0,0,0,0,0,0,0,0,0,0,0,0,0,0,0,0,0,0,0,0,0,0,0,0,0,0,0,0,0,0,0,18,18,18
</data>
 </layer>
 <objectgroup id="4" name="objects">
  <object id="5" name="object" x="0" y="576" width="96" height="32"/>
  <object id="6" name="object" x="128" y="544" width="96" height="32"/>
  <object id="7" name="object" x="320" y="480" width="96" height="32"/>
  <object id="8" name="object" x="320" y="320" width="96" height="32"/>
  <object id="9" name="object" x="512" y="192" width="96" height="32"/>
  <object id="10" name="object" x="672" y="192" width="96" height="32"/>
  <object id="11" name="object" x="672" y="384" width="96" height="32"/>
  <object id="12" name="object" x="512" y="384" width="96" height="32"/>
  <object id="13" name="object" x="864" y="320" width="96" height="32"/>
  <object id="14" name="object" x="864" y="480" width="96" height="32"/>
  <object id="15" name="object" x="1056" y="544" width="96" height="32"/>
  <object id="17" name="object" x="1184" y="576" width="96" height="32"/>
  <object id="19" name="player" x="32" y="576">
   <point/>
  </object>
  <object id="20" name="fren" x="1248" y="576">
   <point/>
  </object>
  <object id="21" name="fruit" x="576" y="192">
   <point/>
  </object>
  <object id="22" name="fruit" x="736" y="192">
   <point/>
  </object>
  <object id="23" name="enemy" x="384" y="320">
   <point/>
  </object>
  <object id="24" name="enemy" x="928" y="320">
   <point/>
  </object>
  <object id="25" name="fruit" x="576" y="384">
   <point/>
  </object>
  <object id="26" name="fruit" x="736" y="384">
   <point/>
  </object>
  <object id="27" name="enemy" x="384" y="480">
   <point/>
  </object>
  <object id="28" name="enemy" x="928" y="480">
   <point/>
  </object>
  <object id="29" name="fruit" x="1120" y="544">
   <point/>
  </object>
  <object id="30" name="fruit" x="192" y="544">
   <point/>
  </object>
 </objectgroup>
</map>
