<?xml version="1.0" encoding="UTF-8"?>
<map version="1.10" tiledversion="1.12.2" orientation="orthogonal" renderorder="right-down" width="60" height="20" tilewidth="32" tileheight="32" infinite="0" nextlayerid="5" nextobjectid="39">
 <tileset firstgid="1" source="../tilesets/0.tsx"/>
 <layer id="3" name="ground" width="60" height="20">
  <data encoding="csv">
0,0,0,0,0,0,0,0,0,0,0,0,0,0,0,0,0,0,0,0,0,0,0,0,0,0,0,0,0,0,0,0,0,0,0,0,0,0,0,0,0,0,0,0,0,0,0,0,0,0,0,0,0,0,0,0,0,0,0,0,
0,0,0,0,0,0,0,0,0,0,0,0,0,0,0,0,0,0,0,0,0,0,0,0,0,0,0,0,0,0,0,0,0,0,0,0,0,0,0,0,0,0,0,0,0,0,0,0,0,0,0,0,0,0,0,0,0,0,0,0,
0,0,0,0,0,0,0,0,0,0,0,0,0,0,0,0,0,0,0,0,0,0,0,0,0,0,0,0,0,0,0,0,0,0,0,0,0,0,0,0,0,0,0,0,0,0,0,0,0,0,0,0,0,0,0,0,0,0,0,0,
0,0,0,0,0,0,0,0,0,0,0,0,0,0,0,0,0,0,0,0,0,0,0,0,0,0,0,0,0,0,0,0,0,0,0,0,0,0,0,0,0,0,0,0,0,0,0,0,0,0,0,0,0,0,0,0,0,0,0,0,
0,0,0,0,0,0,0,0,0,0,0,0,0,0,0,0,0,0,0,0,0,0,0,0,0,0,0,0,0,0,0,0,0,0,0,0,0,0,0,0,0,0,0,0,0,0,0,0,0,0,0,0,0,0,0,0,0,0,0,0,
0,0,0,0,0,0,0,0,0,0,0,0,0,0,0,0,0,0,0,0,0,0,0,0,0,0,0,0,0,0,0,0,0,0,0,0,0,0,0,0,0,0,0,0,0,0,0,0,0,0,0,0,0,0,0,0,0,0,0,0,
0,0,0,0,0,0,0,0,0,0,0,0,0,0,0,0,0,0,0,0,0,0,0,0,0,0,0,0,0,0,0,0,0,0,0,0,0,0,0,0,0,0,0,0,0,0,0,0,0,0,0,0,0,0,0,0,0,0,0,0,
0,0,0,0,0,0,0,0,0,0,0,0,0,0,0,0,0,0,0,0,0,0,0,0,0,0,0,0,0,0,0,0,0,0,0,0,0,0,0,0,0,0,0,0,0,0,0,0,0,0,0,0,0,0,0,0,0,0,0,0,
0,0,0,0,0,0,0,0,0,0,0,0,0,0,0,0,0,0,0,0,0,0,0,0,0,0,0,0,0,0,0,0,0,0,0,0,0,0,0,0,0,0,0,0,0,0,0,0,0,0,0,0,0,0,0,0,0,0,0,0,
0,0,0,0,0,0,0,0,0,0,0,0,0,0,0,0,0,0,0,0,0,0,0,0,0,0,2,2,2,49,49,2,2,2,0,0,0,0,0,0,0,0,0,0,0,0,0,0,0,0,0,0,0,0,0,0,0,0,0,0,
0,0,0,0,0,0,0,0,0,0,0,0,0,0,0,0,0,0,0,0,0,0,0,0,0,0,18,18,18,18,18,18,18,18,0,0,0,0,0,0,0,0,0,0,0,0,0,0,0,0,0,0,0,0,0,0,0,0,0,0,
0,0,0,0,0,0,0,0,0,0,0,0,0,0,0,0,0,0,0,0,0,0,0,0,0,0,0,0,0,0,0,0,0,0,0,0,0,0,0,0,0,0,0,0,0,0,0,0,0,0,0,0,0,0,0,0,0,0,0,0,
0,0,0,0,0,0,0,0,0,0,0,0,0,0,0,0,0,0,0,2,2,2,2,2,0,0,0,0,0,0,0,0,0,0,0,2,2,2,2,2,0,0,0,0,0,0,0,0,0,0,0,0,0,0,0,0,0,0,0,0,
0,0,0,0,0,0,0,0,0,0,0,0,0,0,0,0,0,0,0,18,18,18,18,18,0,0,0,0,0,0,0,0,0,0,0,18,18,18,18,18,0,0,0,0,0,0,0,0,0,0,0,0,0,0,0,0,0,0,0,0,
0,0,0,0,0,0,0,0,0,0,0,0,0,0,0,0,0,0,0,0,0,0,0,0,0,0,0,0,0,0,0,0,0,0,0,0,0,0,0,0,0,0,0,0,0,0,0,0,0,0,0,0,0,0,0,0,0,0,0,0,
0,0,0,0,0,0,0,0,0,0,0,0,0,2,2,2,0,0,0,0,0,0,0,0,0,0,0,0,2,2,2,2,0,0,0,0,0,0,0,0,0,0,0,2,2,2,0,0,0,0,0,0,0,0,0,0,0,0,0,0,
0,0,0,0,0,0,0,0,0,0,0,0,0,18,18,18,0,0,0,0,0,0,0,0,0,0,0,0,18,18,18,18,0,0,0,0,0,0,0,0,0,0,0,18,18,18,0,0,0,0,0,0,0,0,0,0,0,0,0,0,
0,0,0,0,0,0,0,0,0,0,0,0,0,0,0,0,0,0,0,0,0,0,0,0,0,0,0,0,0,0,0,0,0,0,0,0,0,0,0,0,0,0,0,0,0,0,0,2,2,2,0,0,0,0,0,0,0,0,0,0,
2,2,2,0,0,0,2,2,2,0,0,0,0,0,0,0,0,0,0,0,2,2,2,0,0,0,0,0,0,0,0,0,0,0,0,0,2,2,2,0,0,0,0,0,0,0,0,18,18,18,0,2,2,2,0,0,0,2,2,2,
18,18,18,0,0,0,18,18,18,0,0,0,0,0,0,0,0,0,0,0,18,18,18,0,0,0,0,0,0,0,0,0,0,0,0,0,18,18,18,0,0,0,0,0,0,0,0,0,0,0,0,18,18,18,0,0,0,18,18,18
</data>
 </layer>
 <objectgroup id="4" name="objects">
  <object id="5" name="object" x="1824" y="576" width="96" height="32"/>
  <object id="6" name="object" x="1632" y="576" width="96" height="32"/>
  <object id="7" name="object" x="1376" y="480" width="96" height="32"/>
  <object id="8" name="object" x="1152" y="576" width="96" height="32"/>
  <object id="9" name="object" x="640" y="576" width="96" height="32"/>
  <object id="10" name="object" x="896" y="480" width="128" height="32"/>
  <object id="11" name="object" x="1120" y="384" width="160" height="32"/>
  <object id="12" name="object" x="832" y="288" width="96" height="32"/>
  <object id="13" name="object" x="992" y="288" width="96" height="32"/>
  <object id="14" name="spike" x="928" y="288" width="64" height="32"/>
  <object id="15" name="object" x="608" y="384" width="160" height="32"/>
  <object id="16" name="object" x="416" y="480" width="96" height="32"/>
  <object id="17" name="object" x="192" y="576" width="96" height="32"/>
  <object id="18" name="object" x="0" y="576" width="96" height="32"/>
  <object id="19" name="object" x="1504" y="544" width="96" height="32"/>
  <object id="22" name="enemy" x="896" y="288">
   <point/>
  </object>
  <object id="23" name="enemy" x="1056" y="288">
   <point/>
  </object>
  <object id="24" name="fruit" x="1248" y="384">
   <point/>
  </object>
  <object id="25" name="fruit" x="1152" y="384">
   <point/>
  </object>
  <object id="26" name="enemy" x="1440" y="480">
   <point/>
  </object>
  <object id="28" name="fruit" x="1568" y="544">
   <point/>
  </object>
  <object id="29" name="fruit" x="1696" y="576">
   <point/>
  </object>
  <object id="30" name="fren" x="1888" y="576">
   <point/>
  </object>
  <object id="31" name="fruit" x="1216" y="576">
   <point/>
  </object>
  <object id="32" name="enemy" x="960" y="480">
   <point/>
  </object>
  <object id="33" name="fruit" x="736" y="384">
   <point/>
  </object>
  <object id="34" name="enemy" x="448" y="480">
   <point/>
  </object>
  <object id="35" name="fruit" x="704" y="576">
   <point/>
  </object>
  <object id="36" name="fruit" x="256" y="576">
   <point/>
  </object>
  <object id="37" name="player" x="64" y="576">
   <point/>
  </object>
  <object id="38" name="fruit" x="640" y="384">
   <point/>
  </object>
 </objectgroup>
</map>
